packages/astro-components-stencil/src/icons/copyright.svg

<svg xmlns="http://www.w3.org/2000/svg" viewBox="0 0 24 24"><g xmlns="http://www.w3.org/2000/svg" id="copyright" fill-rule="nonzero">
            <path d="M10.08 10.86c.05-.33.16-.62.3-.87.14-.25.34-.46.59-.62.24-.15.54-.22.91-.23.23.01.44.05.63.13.2.09.38.21.52.36s.25.33.34.53c.09.2.13.42.14.64h1.79c-.02-.47-.11-.9-.28-1.29-.17-.39-.4-.73-.7-1.01-.3-.28-.66-.5-1.08-.66-.42-.16-.88-.23-1.39-.23-.65 0-1.22.11-1.7.34-.48.23-.88.53-1.2.92-.32.39-.56.84-.71 1.36-.15.52-.24 1.06-.24 1.64v.27c0 .58.08 1.12.23 1.64.15.52.39.97.71 1.35.32.38.72.69 1.2.91.48.22 1.05.34 1.7.34.47 0 .91-.08 1.32-.23.41-.15.77-.36 1.08-.63.31-.27.56-.58.74-.94.18-.36.29-.74.3-1.15h-1.79c-.01.21-.06.4-.15.58-.09.18-.21.33-.36.46s-.32.23-.52.3c-.19.07-.39.09-.6.1-.36-.01-.66-.08-.89-.23a1.75 1.75 0 01-.59-.62c-.14-.25-.25-.55-.3-.88a6.74 6.74 0 01-.08-1v-.27c0-.35.03-.68.08-1.01zM12 2C6.48 2 2 6.48 2 12s4.48 10 10 10 10-4.48 10-10S17.52 2 12 2zm0 18c-4.41 0-8-3.59-8-8s3.59-8 8-8 8 3.59 8 8-3.59 8-8 8z"/>
        </g></svg>

<svg width="24" height="24" viewBox="0 0 24 24" fill="none" xmlns="http://www.w3.org/2000/svg">
<path fill-rule="evenodd" clip-rule="evenodd" d="M12 2C6.48 2 2 6.48 2 12C2 17.52 6.48 22 12 22C17.52 22 22 17.52 22 12C22 6.48 17.52 2 12 2ZM10.08 10.86C10.13 10.53 10.24 10.24 10.38 9.99C10.52 9.74 10.72 9.53 10.97 9.37C11.21 9.22 11.51 9.15 11.88 9.14C12.11 9.15 12.32 9.19 12.51 9.27C12.71 9.36 12.89 9.48 13.03 9.63C13.17 9.78 13.28 9.96 13.37 10.16C13.46 10.36 13.5 10.58 13.51 10.8H15.3C15.28 10.33 15.19 9.9 15.02 9.51C14.85 9.12 14.62 8.78 14.32 8.5C14.02 8.22 13.66 8 13.24 7.84C12.82 7.68 12.36 7.61 11.85 7.61C11.2 7.61 10.63 7.72 10.15 7.95C9.67 8.18 9.27 8.48 8.95 8.87C8.63 9.26 8.39 9.71 8.24 10.23C8.09 10.75 8 11.29 8 11.87V12.14C8 12.72 8.08 13.26 8.23 13.78C8.38 14.3 8.62 14.75 8.94 15.13C9.26 15.51 9.66 15.82 10.14 16.04C10.62 16.26 11.19 16.38 11.84 16.38C12.31 16.38 12.75 16.3 13.16 16.15C13.57 16 13.93 15.79 14.24 15.52C14.55 15.25 14.8 14.94 14.98 14.58C15.16 14.22 15.27 13.84 15.28 13.43H13.49C13.48 13.64 13.43 13.83 13.34 14.01C13.25 14.19 13.13 14.34 12.98 14.47C12.83 14.6 12.66 14.7 12.46 14.77C12.27 14.84 12.07 14.86 11.86 14.87C11.5 14.86 11.2 14.79 10.97 14.64C10.72 14.48 10.52 14.27 10.38 14.02C10.24 13.77 10.13 13.47 10.08 13.14C10.03 12.81 10 12.47 10 12.14V11.87C10 11.52 10.03 11.19 10.08 10.86ZM4 12C4 16.41 7.59 20 12 20C16.41 20 20 16.41 20 12C20 7.59 16.41 4 12 4C7.59 4 4 7.59 4 12Z" fill="black"/>
</svg>
